X: 40802
T: Tra Va Ruggit Creest
R: reel
M: 4/4
K: Adorian
AG|E2 A2 AB c2|BA GA Bc d2|e3d ef g2|BA AG A2 AG|
E2 A2 AB c2|BA GA Bc d2|e3d ef g2|BA AG A2 cd|
e2 e2 e2 ge|e2 d2 d2 ed|c2 c2 c2 ec|c2 B2 B2 AB|
c2 A2 A2 Bc|d2 B2 B2 cd|e3d ef g2|BA AG A2||

